X:3152
T:Cockscomb bourr\'ee
S:Lancaster
R:Bourr\'ee
O:France
M:3/4
K:C
A FE |\
D2 DF ED | A4 AB | cB Ad cB | cB AG FE |\
D2 DF ED | A4 AB | cB Ad cB | A3 :|
|: A de | \
f2 Af Af | _B4 de | fd gf ed | ^c2 d2 e2 |\
f2 Af Af | _B4 de | fd gf e^c | d3 :|


